X:1
T:Herre Jesu Krist, 44.74.447
T:Herre Jesu Krist, 44.74.447
T:Ludvig Mathias Lindeman, 1871
T:Public Domain Courtesy of the Cyber Hymnal™
C:Ludvig Mathias Lindeman, 1871
Z:Public Domain
Z:Courtesy of the Cyber Hymnal™
%%score ( 1 2 ) ( 3 4 )
L:1/8
Q:1/4=110
M:4/4
K:A
V:1 treble 
V:2 treble 
V:3 bass 
V:4 bass 
V:1
 E2 | [EA]2 [DF]2 [CE]2 [EA]2 | [Ec]2 (BA) [EB]2 [EG]2 | [EB]2 (BA) [EG]2 E2 | F4 E2 [EG]2 | %5
 [EB]2 [FA]2 [EG]2 [EB]2 | [EA]2 ([FA][GB]) [Ac]2 ([Ac][GB]) | [FA]2 [^EG]2 F2 [Fd]2 | %8
 [^Ec]2 cB [CA]2 [=Ec]2 | [EB]4 !fermata![CA]2 |] %10
V:2
 E2 | x8 | x2 E2 x4 | x2 E2 x E2 x | (E2 ^D2) E2 x2 | x8 | x8 | x4 F2 x2 | x2 C2 x4 | x6 |] %10
V:3
 [A,C]2 | [C,A,]2 [D,A,]2 [A,,A,]2 [C,A,]2 | [E,A,]2 (G,F,) [E,G,]2 [E,B,]2 | %3
 [G,,B,]2 [A,,C]2 [B,,B,]2 [C,G,]2 | (B,2 A,2) [E,G,]2 [E,B,]2 | %5
 [G,B,]2 [^D,B,]2 [E,B,]2 [=D,G,]2 | [C,A,]2 [B,,D]2 [A,,E]2 [B,,D]2 | %7
 [C,C]2 [C,B,]2 [F,A,]2 [B,,B,]2 | [C,G,]2 [^E,G,]2 [F,A,]2 [C,A,]2 | %9
 (A,2 G,2) !fermata![A,,A,]2 |] %10
V:4
 x2 | x8 | x2 E,2 x4 | x8 | B,,4 x4 | x8 | x8 | x8 | x8 | E,4 x2 |] %10

